{ "compressionlevel":-1,
 "height":20,
 "infinite":false,
 "layers":[
        {
         "id":2,
         "image":"..\/img\/backgrounds\/background_mushroom_cave.png",
         "imageheight":1080,
         "imagewidth":1920,
         "name":"background",
         "opacity":1,
         "parallaxx":0.1,
         "parallaxy":0.1,
         "type":"imagelayer",
         "visible":true,
         "x":0,
         "y":0
        }, 
        {
         "id":3,
         "image":"..\/img\/backgrounds\/foreground_mushroom_cave.png",
         "imageheight":1080,
         "imagewidth":1920,
         "name":"foreground",
         "opacity":1,
         "parallaxx":0.8,
         "parallaxy":0.8,
         "type":"imagelayer",
         "visible":true,
         "x":0,
         "y":0
        }],
 "nextlayerid":4,
 "nextobjectid":1,
 "orientation":"orthogonal",
 "renderorder":"right-down",
 "tiledversion":"1.12.2",
 "tileheight":32,
 "tilesets":[],
 "tilewidth":32,
 "type":"map",
 "version":"1.11",
 "width":30
}