{
  "compressionlevel": -1,
  "height": 1080,
  "infinite": false,
  "layers": [
    {
      "id": 2,
      "image": "../img/backgrounds/background_night_sky.png",
      "imageheight": 768,
      "imagewidth": 1344,
      "name": "background",
      "opacity": 1,
      "parallaxx": 0,
      "parallaxy": 0,
      "type": "imagelayer",
      "visible": true,
      "x": 0,
      "y": 0
    },
    {
      "id": 3,
      "image": "../img/backgrounds/midground_night_mountains.png",
      "imageheight": 768,
      "imagewidth": 1344,
      "name": "midground",
      "opacity": 1,
      "parallaxx": 0.5,
      "parallaxy": 0.5,
      "type": "imagelayer",
      "visible": true,
      "x": 0,
      "y": 0
    },
    {
      "id": 4,
      "image": "../img/backgrounds/foreground_night_forest.png",
      "imageheight": 768,
      "imagewidth": 1344,
      "name": "foreground",
      "opacity": 1,
      "type": "imagelayer",
      "visible": true,
      "x": 0,
      "y": 0
    }
  ],
  "nextlayerid": 6,
  "nextobjectid": 3,
  "orientation": "orthogonal",
  "renderorder": "right-down",
  "tiledversion": "1.12.2",
  "tileheight": 32,
  "tilesets": [],
  "tilewidth": 32,
  "type": "map",
  "version": "1.11",
  "width": 1920
}
