{
  "compressionlevel": -1,
  "height": 20,
  "infinite": false,
  "layers": [
    {
      "id": 2,
      "image": "../img/backgrounds/background_night_sky.png",
      "imageheight": 768,
      "imagewidth": 1344,
      "name": "sky",
      "offsetx": 0,
      "offsety": -200,
      "opacity": 1,
      "parallaxx": 0,
      "parallaxy": 0,
      "type": "imagelayer",
      "visible": true,
      "x": 0,
      "y": 0
    }
  ],
  "nextlayerid": 3,
  "nextobjectid": 1,
  "orientation": "orthogonal",
  "renderorder": "right-down",
  "tiledversion": "1.12.2",
  "tileheight": 32,
  "tilesets": [],
  "tilewidth": 32,
  "type": "map",
  "version": "1.11",
  "width": 20
}
