<?xml version="1.0" encoding="UTF-8"?>
<map version="1.11" tiledversion="1.12.2" orientation="orthogonal" renderorder="right-down" width="30" height="20" tilewidth="32" tileheight="32" infinite="0" nextlayerid="5" nextobjectid="1">
 <imagelayer id="2" name="background" offsetx="-480" offsety="-320" parallaxx="0" parallaxy="0">
  <image source="../img/backgrounds/background_night_sky.png" width="1207" height="161"/>
 </imagelayer>
 <imagelayer id="3" name="midground" offsetx="-544" offsety="-96" parallaxx="0.5" parallaxy="0.5">
  <image source="../img/backgrounds/midground_night_mountains.png" width="1206" height="157"/>
 </imagelayer>
 <imagelayer id="4" name="foreground" offsetx="-512" offsety="0">
  <image source="../img/backgrounds/foreground_night_forest.png" width="1206" height="372"/>
 </imagelayer>
</map>
